src/lib/packages/icons/src/assets/filled/desktop-code.svg

<svg width="24" height="24" viewBox="0 0 24 24" fill="none" xmlns="http://www.w3.org/2000/svg">
<path d="M18 3H6C4 3 3 4 3 6V14C3 16 4 17 6 17H10V20.25H7.5C7.086 20.25 6.75 20.586 6.75 21C6.75 21.414 7.086 21.75 7.5 21.75H16.5C16.914 21.75 17.25 21.414 17.25 21C17.25 20.586 16.914 20.25 16.5 20.25H14V17H18C20 17 21 16 21 14V6C21 4 20 3 18 3ZM10.53 11.47C10.823 11.763 10.823 12.238 10.53 12.531C10.384 12.677 10.192 12.751 10 12.751C9.808 12.751 9.61597 12.678 9.46997 12.531L7.46997 10.531C7.17697 10.238 7.17697 9.76297 7.46997 9.46997L9.46997 7.46997C9.76297 7.17697 10.238 7.17697 10.531 7.46997C10.824 7.76297 10.824 8.23801 10.531 8.53101L9.06104 10.001L10.53 11.47ZM16.53 10.53L14.53 12.53C14.384 12.676 14.192 12.75 14 12.75C13.808 12.75 13.616 12.677 13.47 12.53C13.177 12.237 13.177 11.762 13.47 11.469L14.9399 9.99902L13.47 8.52905C13.177 8.23605 13.177 7.76102 13.47 7.46802C13.763 7.17502 14.238 7.17502 14.531 7.46802L16.531 9.46802C16.823 9.76302 16.823 10.237 16.53 10.53Z" fill="currentColor"/>
</svg>

<svg xmlns="http://www.w3.org/2000/svg" width="24" height="24" fill="none"><path fill="currentColor" d="M18 3H6C4 3 3 4 3 6v8c0 2 1 3 3 3h4v3.25H7.5a.75.75 0 0 0 0 1.5h9a.75.75 0 0 0 0-1.5H14V17h4c2 0 3-1 3-3V6c0-2-1-3-3-3Zm-7.47 8.47a.75.75 0 0 1-1.06 1.061l-2-2a.75.75 0 0 1 0-1.061l2-2a.75.75 0 1 1 1.061 1.061l-1.47 1.47 1.469 1.469Zm6-.94-2 2a.748.748 0 0 1-1.06 0 .75.75 0 0 1 0-1.061l1.47-1.47-1.47-1.47a.75.75 0 0 1 1.061-1.061l2 2a.752.752 0 0 1-.001 1.062Z"/></svg>
